4IRINC/4irinc main code/template/assets/svg/quote-green.svg

<svg width="46" height="38" viewBox="0 0 46 38" fill="none" xmlns="http://www.w3.org/2000/svg">
<path d="M11.0808 38C8.26202 38 5.71051 36.9847 3.42631 34.9542C1.1421 32.9237 0 29.7328 0 25.3817C0 21.659 0.631801 18.1781 1.8954 14.9389C3.20761 11.6997 4.95721 8.82315 7.14422 6.30916C9.37982 3.74682 11.8584 1.64376 14.58 0L18.8082 2.17557C17.9334 2.94911 16.8885 4.13359 15.6735 5.72901C14.4585 7.27608 13.3407 9.11323 12.3201 11.2405C11.3481 13.3677 10.7892 15.6641 10.6434 18.1298C13.5108 18.2748 15.9165 19.2176 17.8605 20.958C19.8531 22.6985 20.8494 24.9466 20.8494 27.7023C20.8494 30.8931 19.8774 33.4071 17.9334 35.2443C15.9894 37.0814 13.7052 38 11.0808 38ZM36.0856 38C33.3154 38 30.7882 36.9847 28.504 34.9542C26.2684 32.9237 25.1506 29.7328 25.1506 25.3817C25.1506 21.659 25.7824 18.1781 27.046 14.9389C28.3582 11.6997 30.1078 8.82315 32.2948 6.30916C34.4818 3.74682 36.9118 1.64376 39.5848 0L43.813 2.17557C42.9382 2.94911 41.8933 4.13359 40.6783 5.72901C39.4633 7.27608 38.3698 9.11323 37.3978 11.2405C36.4744 13.3677 35.9398 15.6641 35.794 18.1298C38.5642 18.2748 40.9456 19.2176 42.9382 20.958C44.9794 22.6985 46 24.9466 46 27.7023C46 30.8931 45.0037 33.4071 43.0111 35.2443C41.0185 37.0814 38.71 38 36.0856 38Z" fill="#3AEDB1"/>
</svg>

<svg id="Layer_1" data-name="Layer 1" xmlns="http://www.w3.org/2000/svg" viewBox="0 0 46 38"><defs><style>.cls-1{fill:#00bdff;}</style></defs><path class="cls-1" d="M11.08,38a11.23,11.23,0,0,1-7.65-3Q0,31.91,0,25.38A28.35,28.35,0,0,1,1.9,14.94,30.47,30.47,0,0,1,7.14,6.31,31.52,31.52,0,0,1,14.58,0l4.23,2.18a25,25,0,0,0-3.14,3.55,29.92,29.92,0,0,0-3.35,5.51,19.27,19.27,0,0,0-1.68,6.89A11.29,11.29,0,0,1,17.86,21a8.55,8.55,0,0,1,3,6.74,9.85,9.85,0,0,1-2.92,7.54A9.62,9.62,0,0,1,11.08,38Zm25,0a11.19,11.19,0,0,1-7.59-3q-3.34-3-3.35-9.57a28.35,28.35,0,0,1,1.9-10.44,30.47,30.47,0,0,1,5.24-8.63A30.87,30.87,0,0,1,39.58,0l4.23,2.18a25,25,0,0,0-3.13,3.55,26.84,26.84,0,0,0-3.28,5.51,20.09,20.09,0,0,0-1.61,6.89A11.44,11.44,0,0,1,42.94,21,8.45,8.45,0,0,1,46,27.7a9.75,9.75,0,0,1-3,7.54A9.89,9.89,0,0,1,36.09,38Z"/></svg>
